X:1
T:Lady Grace Douglas's Reel
T:Lady Grace Douglas's Reel
T:Niel Gow (1727-1807)
C:Niel Gow (1727-1807)
L:1/8
M:4/4
K:Bb
V:1 treble 
V:1
 g | Tf2 dB Tc2 AF | B2 FD ECCg | Tf2 dB Tc2 AF | BFGE | DB,B, :| E | D/(E/F) FB GBFB | EGDB cCCE | %9
 D(E/F/) FB GBFB | DFBF DB,B,E | D(E/F/) FB GBFB | EBDB cCTC>E | DFBd cFBg | fdce dTBB || %15

